X: 1
T: the Old Copperplate
O: trad Ireland
R: reel
Z: 2007 John Chambers <jc:trillian.mit.edu>
M: C|
L: 1/8
K: Ador
|: "Am"A2EA cAce | aged "D7"cAFA |  "G"G2DG BGBd |    gedc     BAGB  |
|  "Am"A2EA cAce | aged "Em"cAGB | "Am"ABcd efge | "G"aged "Am"cAA2 :|
|: "Am"ageg a2ab | aged "D7"cAA2 |  "G"gfef g2ef |    gfge     dBGB  |
|  "Am"ageg a2eg | aged "Em"cAGB | "Am"ABcd efge | "G"aged "Am"cAA2 :|



